X:1
T:My Heart Is Clinging
T:James Milton Black
T:My Heart Is Clinging
T:Public Domain
T:Public Domain
C:James Milton Black
Z:Public Domain
%%score 1 ( 2 3 )
L:1/8
M:4/4
K:Bb
V:1 treble 
V:2 bass 
V:3 bass 
V:1
 [DF] | [DG][B,D] [DF]2 [DF]3 [DF] | [DG][B,D] [CE]2 [CE]3 [CE] | [EA][CE] [EA]2 [EA]3 [EG] | %4
w: 1.~My|heart is cling- ing to|Christ, my Sav- ior, He|ev- er keeps me in|
w: 2.~When|sha- dows ga- ther, His|grace re- ceiv- ing, ’Tis|sweet to trust Him, His|
w: 3.~In|yon- der man- sions for-|ev- er dwell- ing, Thro’|end- less ag- es the|
 [DF][DG] [B,D]2 [B,D]3 [DF] | [DG][B,D] [DF]2 [DF]3 [DB] | [Ec][EB] [EG]2 [EG]3 [EG] | %7
w: His sweet fa- vor; The|way grows bright- er, my|bur- dens light- er, For|
w: word be- liev- ing; My|bur- dens bear- ing, my|sor- rows shar- ing, For|
w: chor- us swell- ing; Ev-|er in glo- ry, I’ll|sing the stor- y, For|
 G[Gc][GB][EG] [DF][EG][DF][DB] | [Fd]2 [Ec]2 [DB]3 ||"^Refrain" [Fd] | [Ff][Fd] [Ff]2 [Ff]3 [Fd] | %11
w: Je- sus is for ev- er- more my|Lord and king.|||
w: Je- sus is for ev- er- more my|Lord and king.|My|heart is cling- ing, my|
w: Je- sus is for ev- er- more my|Lord and king.|||
 [Gc][GB] [Gc]2 [Gc]3 [Gc] | [GB][EG][DF][EG] [DF][DB][Fd][DB] | [=EG]2 [Ed]2 [_Ec]3 [EF] | %14
w: |||
w: soul is sing- ing, Glad|hal- le- lu- jahs to my Sav- ior’s|name I bring; I|
w: |||
 [DB][Fd] [Ff]2 [Ff]3 [Fd] | [Gc][GB] [Gc]2 [Gc]3 [Gc] | [GB][EG][DF][EG] [DF][DB][Fd][FB] | %17
w: |||
w: am a- bid- ing, in|Him con- fid- ing; For|Je- sus is for ev- er- more my|
w: |||
 [Fd]2 [Ec]2 [DB]3 |] %18
w: |
w: Lord and king.|
w: |
V:2
 [B,,B,] | [B,,B,][B,,F,] [B,,B,]2 [B,,B,]3 [B,,B,] | [B,,B,][B,,F,] [F,A,]2 [F,A,]3 [F,A,] | %3
 [F,C][F,A,] [F,C]2 [F,C]3 [F,A,] | [B,,B,][B,,B,] [B,,F,]2 [B,,F,]3 [B,,B,] | %5
 [B,,B,][B,,F,] [B,,B,]2 [B,,B,]3 [B,,B,] | [E,G,][E,G,] [E,B,]2 [E,B,]3 [E,B,] | %7
 [E,C][E,C][E,C][E,B,] [B,,B,][B,,B,][B,,B,][B,,B,] | [F,A,]2 [F,A,]2 [B,,B,]3 || B, | %10
 [B,D]B, [B,D]2 [B,D]3 B, | [E,E][E,E] [E,E]2 [E,E]3 [E,B,] | %12
 [B,,B,][B,,B,][B,,B,][B,,B,] [B,,B,][B,,B,][B,,B,][B,,B,] | [C,B,]2 [C,B,]2 [F,A,]3 [F,A,] | %14
 [B,,B,][B,,B,] [B,,D]2 [B,,D]3 [B,,B,] | [E,B,][E,E] [E,E]2 [E,E]3 [E,B,] | %16
 [B,,B,][B,,B,][B,,B,][B,,B,] [B,,B,][B,,B,][B,,B,][D,B,] | [F,A,]2 [F,A,]2 [B,,B,]3 |] %18
V:3
 x | x8 | x8 | x8 | x8 | x8 | x8 | x8 | x7 || B, | x B, x4 B, x | x8 | x8 | x8 | x8 | x8 | x8 | %17
 x7 |] %18

